assets/logo.svg

<svg width="100" height="30" viewBox="0 0 100 30" fill="none" xmlns="http://www.w3.org/2000/svg">
<g clip-path="url(#clip0)">
<path d="M12.4994 0H0V30H12.4994V0Z" fill="black"/>
<path d="M12.4994 15H0L12.4994 0H25.0012L12.4994 15Z" fill="#FF513F"/>
<path d="M12.4994 15H0L12.4994 30H25.0012L12.4994 15Z" fill="#FFD45D"/>
<path d="M37.4982 15H24.9988L37.4982 30H50L37.4982 15Z" fill="#007550"/>
<path d="M37.4982 0L24.9988 15H37.4982L50 0H37.4982Z" fill="black"/>
<path d="M62.4994 15H50L62.4994 30H75.0012L62.4994 15Z" fill="#FF513F"/>
<path d="M62.4994 0L50 15H62.4994L75.0012 0H62.4994Z" fill="#FFC856"/>
<path d="M81.2496 0H68.7502V30H81.2496V0Z" fill="black"/>
<path d="M93.7515 22.5012L100 15L87.5006 0H75.0012L86.126 13.3499L93.7515 22.5012Z" fill="#FF513F"/>
<path d="M87.5006 15H100L87.5006 30H75.0012L87.5006 15Z" fill="#007550"/>
</g>
<defs>
<clipPath id="clip0">
<rect width="100" height="30" fill="white"/>
</clipPath>
</defs>
</svg>

<svg xmlns="http://www.w3.org/2000/svg" width="100" height="30" fill="none" xmlns:v="https://vecta.io/nano"><g clip-path="url(#A)"><path d="M12.5 0H0v30h12.5V0z" fill="#000"/><path d="M12.5 15H0L12.5 0H25L12.5 15z" fill="#ff513f"/><path d="M12.5 15H0l12.5 15H25L12.5 15z" fill="#ffd45d"/><path d="M37.498 15H25l12.5 15H50L37.498 15z" fill="#007550"/><path d="M37.498 0L25 15h12.5L50 0H37.498z" fill="#000"/><path d="M62.5 15H50l12.5 15H75L62.5 15z" fill="#ff513f"/><path d="M62.5 0L50 15h12.5L75 0H62.5z" fill="#ffc856"/><path d="M81.25 0h-12.5v30h12.5V0z" fill="#000"/><path d="M93.752 22.5L100 15 87.5 0H75l18.75 22.5z" fill="#ff513f"/><path d="M87.5 15H100L87.5 30H75l12.5-15z" fill="#007550"/></g><defs><clipPath id="A"><path fill="#fff" d="M0 0h100v30H0z"/></clipPath></defs></svg>
